X:145
T:Halling efter Casper p Vallen
R:Halling
Z:C-G Magnusson, 2008-11-21
O:Ranster, Vrmland
S:Efter Lars Caspersson, Ranster
B:Svenska Ltar Vrmland nr 145
D:Folkmusik frn Vrmland (1974). Spr 11.
M:2/4
L:1/16
Q:100
K:D
Adfa g2(fe) | Adfa ^g2a2 | Adfa g2(fe) | (Ad)fd e4 :|
L:1/8
|: dd Bc/d/ | e2 c2 | dd Bc/d/ | e2 c2 | A/c/e/f/ gf/e/ | d3 z :|
